img/icons/messages.svg

<svg width="24" height="24" viewBox="0 0 24 24" fill="none" xmlns="http://www.w3.org/2000/svg">
<path d="M4.41406 14.5858L4.80357 14.1963C4.92924 14.0706 5 13.9002 5 13.7224V10C5 6.13401 8.13401 3.00001 12 3C15.866 2.99999 19 6.134 19 10V13.7224C19 13.9001 19.0706 14.0706 19.1963 14.1963L19.5858 14.5858C19.7051 14.7051 19.7649 14.7648 19.8124 14.831C19.9023 14.9561 19.9619 15.1003 19.9868 15.2523C20 15.3328 20.0002 15.4171 20.0002 15.5858C20.0002 15.9714 20.0002 16.1642 19.9478 16.3197C19.848 16.6155 19.6156 16.8477 19.3198 16.9475C19.1643 17 18.9712 17 18.5856 17H5.41406C5.02852 17 4.83568 17 4.68018 16.9475C4.38431 16.8477 4.15225 16.6155 4.05245 16.3196C4 16.1641 4 15.9714 4 15.5858C4 15.4171 4 15.3328 4.0132 15.2523C4.03815 15.1003 4.09766 14.9561 4.1875 14.831C4.23504 14.7648 4.29476 14.7051 4.41406 14.5858ZM15 17V18C15 19.6569 13.6569 21 12 21C10.3431 21 9 19.6569 9 18V17H15Z" stroke="#8C8D92" stroke-width="2" stroke-linecap="round" stroke-linejoin="round"/>
</svg>

<svg width="24" height="24" fill="none" xmlns="http://www.w3.org/2000/svg"><path d="m4.414 14.586.39-.39A.67.67 0 0 0 5 13.722V10a7 7 0 0 1 14 0v3.722c0 .178.07.349.196.474l.39.39c.12.12.179.179.226.245.09.125.15.27.175.421.013.08.013.165.013.334 0 .385 0 .578-.052.734a1 1 0 0 1-.628.628c-.156.052-.349.052-.734.052H5.414c-.385 0-.578 0-.734-.052a1 1 0 0 1-.628-.628C4 16.164 4 15.97 4 15.586c0-.169 0-.253.013-.334a1 1 0 0 1 .175-.421c.047-.066.107-.126.226-.245ZM15 17v1a3 3 0 1 1-6 0v-1h6Z" stroke="#8C8D92" stroke-width="2" stroke-linecap="round" stroke-linejoin="round"/></svg>
